X:1
T:Title
%%score ( 1 2 ) { 3 | 4 }
L:1/8
Q:1/4=83
M:6/8
K:A
V:1 treble nm="Grand Piano, Soprano"
V:2 treble 
V:3 bass nm="Choir Pad, Sachsen, William F. Sherwin"
V:4 bass 
V:1
 [CE]>[=C^D][^CE] [=DF][CE][CA] | [FA][EG][DF] [CE]3 | [Ec]>[EB][EB] [DG][CA][DB] | [CA]6 | %4
w: By~William~Fiske~Sherwin,~1881 * * * * *||||
 [CE]>[=C^D][^CE] [=DF][CE][EA] | [FA][EG][DF] [CE]3 | [Ec]>[EB][EA] [EG][EA][EB] | [EA]6 | %8
w: ||||
 [GB]>[Ac][GB] [GB][EG][FA] | [GB]>[Ac][GB] [GB]3 | [FA]>[^EG][FA] [Ac][GB][FA] | [EG]6 | %12
w: ||||
 [GB]>[Ac][GB] [GB][EG][FA] | [GB]>[Ac][GB] [GB]3 | [Ac]>[GB][FA] [EG][FA][^DF] | E6 | %16
w: ||||
 [Ec]>[Ec][Ec] [Ee]>[Ee][Ee] | [CA][CG][FA] [^Ec]3 | [Ed]>[Ed][Ec] [FB][FB][^DA] | c3 z3 | %20
w: ||||
 [Ac]>[Ac][Ac] [Ge]>[Ge][Ge] | A[EB][=Gc] [Fd]3 | [Ac]>[EB][EA] [EG][EA][EB] | [EA]6 |] %24
w: ||||
V:2
 x6 | x6 | x6 | x6 | x6 | x6 | x6 | x6 | x6 | x6 | x6 | x6 | x6 | x6 | x6 | x6 | x6 | x6 | x6 | %19
 E3- [EB]3 | x6 | x6 | x6 | x6 |] %24
V:3
 A,>A,A, A,A,A, | A,A,A, A,3 | A,>B,C B,A,G, | A,6 | A,>A,A, A,A,C | DA,A, A,3 | %6
 A,>[K:treble]DC B,CD | C6 | B,3 B,3 | B,3 B,3 | B,3 B,3 | B,6 | B,3 B,3 | B,3 B,3 | A,2 C B,2 A, | %15
 G,6 | A,>A,A, B,>B,B, | A,B,A, G,3 | G,>G,A, A,A,A, | A,3 G,3 | E>EC B,>B,[K:bass]B, | %21
 A,G,A, A,3 | E>DC B,CD | C6 |] %24
V:4
 A,,>A,,A,, A,,A,,A,, | D,D,D, A,,3 | E,>E,E, E,E,E, | A,,6 | z3 z2 A, | D,D,D, A,,3 | %6
 E,>E,E, E,E,E, | A,,6 | E,3 E,3 | E,3 E,3 | B,,3 B,,3 | E,6 | E,3 E,3 | E,3 E,3 | %14
 A,,2 A,, B,,2 B,, | E,6 | z3 G,>G,G, | F,F,F, C,3 | B,,>B,,C, D,D,F, | E,6 | A,>A,A, E,>E,E, | %21
 C,B,,A,, D,3 | E,>E,E, E,E,E, | A,,6 |] %24

